packages/ffe-icons/icons/open/400/sm/grouped_bar_chart.svg

<svg xmlns="http://www.w3.org/2000/svg" height="20" viewBox="0 -960 960 960" width="20"><path d="M228.263-192Q213-192 202.5-202.35 192-212.7 192-228v-344.365Q192-587 202.325-597.5 212.65-608 227.912-608h71.825Q315-608 325.5-597.65 336-587.3 336-572v344.365Q336-213 325.675-202.5 315.35-192 300.088-192h-71.825Zm192 0Q405-192 394.5-202.35 384-212.7 384-228v-144q0-15.3 10.325-25.65Q404.65-408 419.912-408h71.825Q507-408 517.5-397.65 528-387.3 528-372v144q0 15.3-10.325 25.65Q507.35-192 492.088-192h-71.825Zm240 0Q645-192 634.5-202.344 624-212.689 624-227.981v-503.727Q624-747 634.325-757.5 644.65-768 659.912-768h71.825Q747-768 757.5-757.656q10.5 10.345 10.5 25.637v503.727Q768-213 757.675-202.5 747.35-192 732.088-192h-71.825Z"/></svg>

<svg xmlns="http://www.w3.org/2000/svg" height="20" viewBox="0 -960 960 960" width="20"><path d="M228.26-192q-15.26 0-25.76-10.35Q192-212.7 192-228v-344.36q0-14.64 10.32-25.14 10.33-10.5 25.59-10.5h71.83q15.26 0 25.76 10.35Q336-587.3 336-572v344.36q0 14.64-10.32 25.14-10.33 10.5-25.59 10.5h-71.83Zm192 0q-15.26 0-25.76-10.35Q384-212.7 384-228v-144q0-15.3 10.32-25.65Q404.65-408 419.91-408h71.83q15.26 0 25.76 10.35Q528-387.3 528-372v144q0 15.3-10.32 25.65Q507.35-192 492.09-192h-71.83Zm240 0q-15.26 0-25.76-10.34-10.5-10.35-10.5-25.64v-503.73q0-15.29 10.32-25.79 10.33-10.5 25.59-10.5h71.83q15.26 0 25.76 10.34 10.5 10.35 10.5 25.64v503.73q0 15.29-10.32 25.79-10.33 10.5-25.59 10.5h-71.83Z"/></svg>
